X:1
T: Balsillie
C:
R:Strathspey
Q:128
K:A
M:4/4
L:1/16
|:A3F Ec3 B3A Ff3|e3c B3A FA3 B4|A3F Ec3 B3A Ff3|e3c dcBA FG3 A4|
A3F Ec3 B3A Ff3|e3c B3A F3A B2cd|c3B AE3 F3A EC3|DF3 E3c B4A4|
e3d ca3 f3e db3|agfe a3c BA3 B4|e3d ca3 f3e db3|agfe f3g a4a4|
e3d ca3 f3e db3|agfe a3c BA3 B4|c3B AE3 FA3 EC3|DF3 E3c B4A4:|
